img/waves_large.svg

<svg height="179" viewBox="0 0 1440 179" width="1440" xmlns="http://www.w3.org/2000/svg" xmlns:xlink="http://www.w3.org/1999/xlink"><mask id="a" fill="#fff"><path d="m0 0h1440v192h-1440z" fill="#fff" fill-rule="evenodd"/></mask><g fill="none" fill-rule="evenodd" mask="url(#a)" opacity=".4" stroke="#fe6153" transform="translate(0 -4)"><g transform="translate(0 -23)"><path d="m0 27.5c28.799 0 28.799 16 57.597 16 28.8 0 28.8-16 57.6-16 28.799 0 28.799 16 57.598 16s28.799-16 57.599-16c28.799 0 28.799 16 57.598 16s28.799-16 57.598-16c28.8 0 28.8 16 57.599 16s28.799-16 57.599-16c28.799 0 28.799 16 57.599 16s28.8-16 57.601-16c28.797 0 28.797 16 57.595 16 28.799 0 28.799-16 57.598-16 28.798 0 28.798 16 57.596 16s28.798-16 57.597-16 28.799 16 57.598 16c28.801 0 28.801-16 57.602-16s28.801 16 57.603 16c28.8 0 28.8-16 57.601-16s28.801 16 57.603 16c28.801 0 28.801-16 57.602-16 28.8 0 28.8 16 57.601 16s28.801-16 57.602-16c28.803 0 28.803 16 57.604 16 28.804 0 28.804-16 57.606-16 28.804 0 28.804 16 57.607 16"/><path d="m0 54.5c28.799 0 28.799 16 57.597 16 28.8 0 28.8-16 57.6-16 28.799 0 28.799 16 57.598 16s28.799-16 57.599-16c28.799 0 28.799 16 57.598 16s28.799-16 57.598-16c28.8 0 28.8 16 57.599 16s28.799-16 57.599-16c28.799 0 28.799 16 57.599 16s28.8-16 57.601-16c28.797 0 28.797 16 57.595 16 28.799 0 28.799-16 57.598-16 28.798 0 28.798 16 57.596 16s28.798-16 57.597-16 28.799 16 57.598 16c28.801 0 28.801-16 57.602-16s28.801 16 57.603 16c28.8 0 28.8-16 57.601-16s28.801 16 57.603 16c28.801 0 28.801-16 57.602-16 28.8 0 28.8 16 57.601 16s28.801-16 57.602-16c28.803 0 28.803 16 57.604 16 28.804 0 28.804-16 57.606-16 28.804 0 28.804 16 57.607 16"/><path d="m0 81.5c28.799 0 28.799 16 57.597 16 28.8 0 28.8-16 57.6-16 28.799 0 28.799 16 57.598 16s28.799-16 57.599-16c28.799 0 28.799 16 57.598 16s28.799-16 57.598-16c28.8 0 28.8 16 57.599 16s28.799-16 57.599-16c28.799 0 28.799 16 57.599 16s28.8-16 57.601-16c28.797 0 28.797 16 57.595 16 28.799 0 28.799-16 57.598-16 28.798 0 28.798 16 57.596 16s28.798-16 57.597-16 28.799 16 57.598 16c28.801 0 28.801-16 57.602-16s28.801 16 57.603 16c28.8 0 28.8-16 57.601-16s28.801 16 57.603 16c28.801 0 28.801-16 57.602-16 28.8 0 28.8 16 57.601 16s28.801-16 57.602-16c28.803 0 28.803 16 57.604 16 28.804 0 28.804-16 57.606-16 28.804 0 28.804 16 57.607 16"/><path d="m0 108.5c28.799 0 28.799 16 57.597 16 28.8 0 28.8-16 57.6-16 28.799 0 28.799 16 57.598 16s28.799-16 57.599-16c28.799 0 28.799 16 57.598 16s28.799-16 57.598-16c28.8 0 28.8 16 57.599 16s28.799-16 57.599-16c28.799 0 28.799 16 57.599 16s28.8-16 57.601-16c28.797 0 28.797 16 57.595 16 28.799 0 28.799-16 57.598-16 28.798 0 28.798 16 57.596 16s28.798-16 57.597-16 28.799 16 57.598 16c28.801 0 28.801-16 57.602-16s28.801 16 57.603 16c28.8 0 28.8-16 57.601-16s28.801 16 57.603 16c28.801 0 28.801-16 57.602-16 28.8 0 28.8 16 57.601 16s28.801-16 57.602-16c28.803 0 28.803 16 57.604 16 28.804 0 28.804-16 57.606-16 28.804 0 28.804 16 57.607 16"/><path d="m0 135.5c28.799 0 28.799 16 57.597 16 28.8 0 28.8-16 57.6-16 28.799 0 28.799 16 57.598 16s28.799-16 57.599-16c28.799 0 28.799 16 57.598 16s28.799-16 57.598-16c28.8 0 28.8 16 57.599 16s28.799-16 57.599-16c28.799 0 28.799 16 57.599 16s28.8-16 57.601-16c28.797 0 28.797 16 57.595 16 28.799 0 28.799-16 57.598-16 28.798 0 28.798 16 57.596 16s28.798-16 57.597-16 28.799 16 57.598 16c28.801 0 28.801-16 57.602-16s28.801 16 57.603 16c28.8 0 28.8-16 57.601-16s28.801 16 57.603 16c28.801 0 28.801-16 57.602-16 28.8 0 28.8 16 57.601 16s28.801-16 57.602-16c28.803 0 28.803 16 57.604 16 28.804 0 28.804-16 57.606-16 28.804 0 28.804 16 57.607 16"/><path d="m0 162.5c28.799 0 28.799 16 57.597 16 28.8 0 28.8-16 57.6-16 28.799 0 28.799 16 57.598 16s28.799-16 57.599-16c28.799 0 28.799 16 57.598 16s28.799-16 57.598-16c28.8 0 28.8 16 57.599 16s28.799-16 57.599-16c28.799 0 28.799 16 57.599 16s28.8-16 57.601-16c28.797 0 28.797 16 57.595 16 28.799 0 28.799-16 57.598-16 28.798 0 28.798 16 57.596 16s28.798-16 57.597-16 28.799 16 57.598 16c28.801 0 28.801-16 57.602-16s28.801 16 57.603 16c28.8 0 28.8-16 57.601-16s28.801 16 57.603 16c28.801 0 28.801-16 57.602-16 28.8 0 28.8 16 57.601 16s28.801-16 57.602-16c28.803 0 28.803 16 57.604 16 28.804 0 28.804-16 57.606-16 28.804 0 28.804 16 57.607 16"/><path d="m0 189.5c28.799 0 28.799 16 57.597 16 28.8 0 28.8-16 57.6-16 28.799 0 28.799 16 57.598 16s28.799-16 57.599-16c28.799 0 28.799 16 57.598 16s28.799-16 57.598-16c28.8 0 28.8 16 57.599 16s28.799-16 57.599-16c28.799 0 28.799 16 57.599 16s28.8-16 57.601-16c28.797 0 28.797 16 57.595 16 28.799 0 28.799-16 57.598-16 28.798 0 28.798 16 57.596 16s28.798-16 57.597-16 28.799 16 57.598 16c28.801 0 28.801-16 57.602-16s28.801 16 57.603 16c28.8 0 28.8-16 57.601-16s28.801 16 57.603 16c28.801 0 28.801-16 57.602-16 28.8 0 28.8 16 57.601 16s28.801-16 57.602-16c28.803 0 28.803 16 57.604 16 28.804 0 28.804-16 57.606-16 28.804 0 28.804 16 57.607 16"/></g></g></svg>

<?xml version="1.0" encoding="UTF-8"?>
<svg width="1440px" height="179px" viewBox="0 0 1440 179" version="1.1" xmlns="http://www.w3.org/2000/svg" xmlns:xlink="http://www.w3.org/1999/xlink">
    <title>waves edit</title>
    <defs>
        <rect id="path-1" x="0" y="0" width="1440" height="192"></rect>
    </defs>
    <g id="Page-1" stroke="none" stroke-width="1" fill="none" fill-rule="evenodd">
        <g id="TIMELINE-S_ANIMAÇÃO" transform="translate(-31411.000000, -668.000000)">
            <g id="waves-edit" transform="translate(31411.000000, 664.000000)">
                <mask id="mask-2" fill="white">
                    <use xlink:href="#path-1"></use>
                </mask>
                <g id="Mask"></g>
                <g opacity="0.4" mask="url(#mask-2)" id="Path" stroke="#FE6153">
                    <g transform="translate(0.000000, -23.000000)">
                        <path d="M0,27.5 C28.799,27.5 28.799,43.5 57.597,43.5 C86.397,43.5 86.397,27.5 115.197,27.5 C143.996,27.5 143.996,43.5 172.795,43.5 C201.594,43.5 201.594,27.5 230.394,27.5 C259.193,27.5 259.193,43.5 287.992,43.5 C316.791,43.5 316.791,27.5 345.59,27.5 C374.39,27.5 374.39,43.5 403.189,43.5 C431.988,43.5 431.988,27.5 460.788,27.5 C489.587,27.5 489.587,43.5 518.387,43.5 C547.187,43.5 547.187,27.5 575.988,27.5 C604.785,27.5 604.785,43.5 633.583,43.5 C662.382,43.5 662.382,27.5 691.181,27.5 C719.979,27.5 719.979,43.5 748.777,43.5 C777.575,43.5 777.575,27.5 806.374,27.5 C835.173,27.5 835.173,43.5 863.972,43.5 C892.773,43.5 892.773,27.5 921.574,27.5 C950.375,27.5 950.375,43.5 979.177,43.5 C1007.977,43.5 1007.977,27.5 1036.778,27.5 C1065.579,27.5 1065.579,43.5 1094.381,43.5 C1123.182,43.5 1123.182,27.5 1151.983,27.5 C1180.783,27.5 1180.783,43.5 1209.584,43.5 C1238.385,43.5 1238.385,27.5 1267.186,27.5 C1295.989,27.5 1295.989,43.5 1324.79,43.5 C1353.594,43.5 1353.594,27.5 1382.396,27.5 C1411.2,27.5 1411.2,43.5 1440.003,43.5"></path>
                        <path d="M0,54.5 C28.799,54.5 28.799,70.5 57.597,70.5 C86.397,70.5 86.397,54.5 115.197,54.5 C143.996,54.5 143.996,70.5 172.795,70.5 C201.594,70.5 201.594,54.5 230.394,54.5 C259.193,54.5 259.193,70.5 287.992,70.5 C316.791,70.5 316.791,54.5 345.59,54.5 C374.39,54.5 374.39,70.5 403.189,70.5 C431.988,70.5 431.988,54.5 460.788,54.5 C489.587,54.5 489.587,70.5 518.387,70.5 C547.187,70.5 547.187,54.5 575.988,54.5 C604.785,54.5 604.785,70.5 633.583,70.5 C662.382,70.5 662.382,54.5 691.181,54.5 C719.979,54.5 719.979,70.5 748.777,70.5 C777.575,70.5 777.575,54.5 806.374,54.5 C835.173,54.5 835.173,70.5 863.972,70.5 C892.773,70.5 892.773,54.5 921.574,54.5 C950.375,54.5 950.375,70.5 979.177,70.5 C1007.977,70.5 1007.977,54.5 1036.778,54.5 C1065.579,54.5 1065.579,70.5 1094.381,70.5 C1123.182,70.5 1123.182,54.5 1151.983,54.5 C1180.783,54.5 1180.783,70.5 1209.584,70.5 C1238.385,70.5 1238.385,54.5 1267.186,54.5 C1295.989,54.5 1295.989,70.5 1324.79,70.5 C1353.594,70.5 1353.594,54.5 1382.396,54.5 C1411.2,54.5 1411.2,70.5 1440.003,70.5"></path>
                        <path d="M0,81.5 C28.799,81.5 28.799,97.5 57.597,97.5 C86.397,97.5 86.397,81.5 115.197,81.5 C143.996,81.5 143.996,97.5 172.795,97.5 C201.594,97.5 201.594,81.5 230.394,81.5 C259.193,81.5 259.193,97.5 287.992,97.5 C316.791,97.5 316.791,81.5 345.59,81.5 C374.39,81.5 374.39,97.5 403.189,97.5 C431.988,97.5 431.988,81.5 460.788,81.5 C489.587,81.5 489.587,97.5 518.387,97.5 C547.187,97.5 547.187,81.5 575.988,81.5 C604.785,81.5 604.785,97.5 633.583,97.5 C662.382,97.5 662.382,81.5 691.181,81.5 C719.979,81.5 719.979,97.5 748.777,97.5 C777.575,97.5 777.575,81.5 806.374,81.5 C835.173,81.5 835.173,97.5 863.972,97.5 C892.773,97.5 892.773,81.5 921.574,81.5 C950.375,81.5 950.375,97.5 979.177,97.5 C1007.977,97.5 1007.977,81.5 1036.778,81.5 C1065.579,81.5 1065.579,97.5 1094.381,97.5 C1123.182,97.5 1123.182,81.5 1151.983,81.5 C1180.783,81.5 1180.783,97.5 1209.584,97.5 C1238.385,97.5 1238.385,81.5 1267.186,81.5 C1295.989,81.5 1295.989,97.5 1324.79,97.5 C1353.594,97.5 1353.594,81.5 1382.396,81.5 C1411.2,81.5 1411.2,97.5 1440.003,97.5"></path>
                        <path d="M0,108.5 C28.799,108.5 28.799,124.5 57.597,124.5 C86.397,124.5 86.397,108.5 115.197,108.5 C143.996,108.5 143.996,124.5 172.795,124.5 C201.594,124.5 201.594,108.5 230.394,108.5 C259.193,108.5 259.193,124.5 287.992,124.5 C316.791,124.5 316.791,108.5 345.59,108.5 C374.39,108.5 374.39,124.5 403.189,124.5 C431.988,124.5 431.988,108.5 460.788,108.5 C489.587,108.5 489.587,124.5 518.387,124.5 C547.187,124.5 547.187,108.5 575.988,108.5 C604.785,108.5 604.785,124.5 633.583,124.5 C662.382,124.5 662.382,108.5 691.181,108.5 C719.979,108.5 719.979,124.5 748.777,124.5 C777.575,124.5 777.575,108.5 806.374,108.5 C835.173,108.5 835.173,124.5 863.972,124.5 C892.773,124.5 892.773,108.5 921.574,108.5 C950.375,108.5 950.375,124.5 979.177,124.5 C1007.977,124.5 1007.977,108.5 1036.778,108.5 C1065.579,108.5 1065.579,124.5 1094.381,124.5 C1123.182,124.5 1123.182,108.5 1151.983,108.5 C1180.783,108.5 1180.783,124.5 1209.584,124.5 C1238.385,124.5 1238.385,108.5 1267.186,108.5 C1295.989,108.5 1295.989,124.5 1324.79,124.5 C1353.594,124.5 1353.594,108.5 1382.396,108.5 C1411.2,108.5 1411.2,124.5 1440.003,124.5"></path>
                        <path d="M0,135.5 C28.799,135.5 28.799,151.5 57.597,151.5 C86.397,151.5 86.397,135.5 115.197,135.5 C143.996,135.5 143.996,151.5 172.795,151.5 C201.594,151.5 201.594,135.5 230.394,135.5 C259.193,135.5 259.193,151.5 287.992,151.5 C316.791,151.5 316.791,135.5 345.59,135.5 C374.39,135.5 374.39,151.5 403.189,151.5 C431.988,151.5 431.988,135.5 460.788,135.5 C489.587,135.5 489.587,151.5 518.387,151.5 C547.187,151.5 547.187,135.5 575.988,135.5 C604.785,135.5 604.785,151.5 633.583,151.5 C662.382,151.5 662.382,135.5 691.181,135.5 C719.979,135.5 719.979,151.5 748.777,151.5 C777.575,151.5 777.575,135.5 806.374,135.5 C835.173,135.5 835.173,151.5 863.972,151.5 C892.773,151.5 892.773,135.5 921.574,135.5 C950.375,135.5 950.375,151.5 979.177,151.5 C1007.977,151.5 1007.977,135.5 1036.778,135.5 C1065.579,135.5 1065.579,151.5 1094.381,151.5 C1123.182,151.5 1123.182,135.5 1151.983,135.5 C1180.783,135.5 1180.783,151.5 1209.584,151.5 C1238.385,151.5 1238.385,135.5 1267.186,135.5 C1295.989,135.5 1295.989,151.5 1324.79,151.5 C1353.594,151.5 1353.594,135.5 1382.396,135.5 C1411.2,135.5 1411.2,151.5 1440.003,151.5"></path>
                        <path d="M0,162.5 C28.799,162.5 28.799,178.5 57.597,178.5 C86.397,178.5 86.397,162.5 115.197,162.5 C143.996,162.5 143.996,178.5 172.795,178.5 C201.594,178.5 201.594,162.5 230.394,162.5 C259.193,162.5 259.193,178.5 287.992,178.5 C316.791,178.5 316.791,162.5 345.59,162.5 C374.39,162.5 374.39,178.5 403.189,178.5 C431.988,178.5 431.988,162.5 460.788,162.5 C489.587,162.5 489.587,178.5 518.387,178.5 C547.187,178.5 547.187,162.5 575.988,162.5 C604.785,162.5 604.785,178.5 633.583,178.5 C662.382,178.5 662.382,162.5 691.181,162.5 C719.979,162.5 719.979,178.5 748.777,178.5 C777.575,178.5 777.575,162.5 806.374,162.5 C835.173,162.5 835.173,178.5 863.972,178.5 C892.773,178.5 892.773,162.5 921.574,162.5 C950.375,162.5 950.375,178.5 979.177,178.5 C1007.977,178.5 1007.977,162.5 1036.778,162.5 C1065.579,162.5 1065.579,178.5 1094.381,178.5 C1123.182,178.5 1123.182,162.5 1151.983,162.5 C1180.783,162.5 1180.783,178.5 1209.584,178.5 C1238.385,178.5 1238.385,162.5 1267.186,162.5 C1295.989,162.5 1295.989,178.5 1324.79,178.5 C1353.594,178.5 1353.594,162.5 1382.396,162.5 C1411.2,162.5 1411.2,178.5 1440.003,178.5"></path>
                        <path d="M0,189.5 C28.799,189.5 28.799,205.5 57.597,205.5 C86.397,205.5 86.397,189.5 115.197,189.5 C143.996,189.5 143.996,205.5 172.795,205.5 C201.594,205.5 201.594,189.5 230.394,189.5 C259.193,189.5 259.193,205.5 287.992,205.5 C316.791,205.5 316.791,189.5 345.59,189.5 C374.39,189.5 374.39,205.5 403.189,205.5 C431.988,205.5 431.988,189.5 460.788,189.5 C489.587,189.5 489.587,205.5 518.387,205.5 C547.187,205.5 547.187,189.5 575.988,189.5 C604.785,189.5 604.785,205.5 633.583,205.5 C662.382,205.5 662.382,189.5 691.181,189.5 C719.979,189.5 719.979,205.5 748.777,205.5 C777.575,205.5 777.575,189.5 806.374,189.5 C835.173,189.5 835.173,205.5 863.972,205.5 C892.773,205.5 892.773,189.5 921.574,189.5 C950.375,189.5 950.375,205.5 979.177,205.5 C1007.977,205.5 1007.977,189.5 1036.778,189.5 C1065.579,189.5 1065.579,205.5 1094.381,205.5 C1123.182,205.5 1123.182,189.5 1151.983,189.5 C1180.783,189.5 1180.783,205.5 1209.584,205.5 C1238.385,205.5 1238.385,189.5 1267.186,189.5 C1295.989,189.5 1295.989,205.5 1324.79,205.5 C1353.594,205.5 1353.594,189.5 1382.396,189.5 C1411.2,189.5 1411.2,205.5 1440.003,205.5"></path>
                    </g>
                </g>
            </g>
        </g>
    </g>
</svg>
